src/img/clock.svg

<svg width="29" height="29" viewBox="0 0 29 29" fill="none" xmlns="http://www.w3.org/2000/svg">
<path d="M14.8763 0.414795C7.07849 0.414795 0.751953 6.74133 0.751953 14.5392C0.751953 22.337 7.07849 28.6635 14.8763 28.6635C22.6741 28.6635 29.0007 22.337 29.0007 14.5392C29.0007 6.74133 22.6741 0.414795 14.8763 0.414795ZM14.8763 26.1917C8.4615 26.1917 3.22372 20.9834 3.22372 14.5392C3.22372 8.09491 8.4615 2.88656 14.8763 2.88656C21.2911 2.88656 26.5289 8.12434 26.5289 14.5392C26.5289 20.954 21.2911 26.1917 14.8763 26.1917Z" fill="black"/>
<path d="M16.1124 14.0389V7.32981C16.1124 6.65302 15.5533 6.09393 14.8765 6.09393C14.1997 6.09393 13.6406 6.65302 13.6406 7.32981V14.5391C13.6406 14.8628 13.7583 15.1865 13.9937 15.4219L19.9672 21.3953C20.2026 21.6307 20.5262 21.7484 20.8499 21.7484C21.1736 21.7484 21.4973 21.6307 21.7327 21.3953C22.2035 20.9245 22.2035 20.13 21.7327 19.6298L16.1124 14.0389Z" fill="black"/>
</svg>

<svg width="29" height="29" fill="none" xmlns="http://www.w3.org/2000/svg"><path d="M14.876.415C7.078.415.752 6.74.752 14.539c0 7.798 6.326 14.124 14.124 14.124 7.798 0 14.125-6.326 14.125-14.124C29 6.741 22.674.415 14.876.415zm0 25.777c-6.415 0-11.652-5.209-11.652-11.653 0-6.444 5.237-11.652 11.652-11.652 6.415 0 11.653 5.237 11.653 11.652 0 6.415-5.238 11.653-11.653 11.653z" fill="#000"/><path d="M16.112 14.039v-6.71c0-.676-.559-1.235-1.235-1.235-.677 0-1.236.559-1.236 1.236v7.21c0 .323.117.647.353.882l5.973 5.973c.236.236.56.353.883.353.324 0 .647-.117.883-.353.47-.47.47-1.265 0-1.765l-5.62-5.591z" fill="#000"/></svg>
